hyprcursor_themes/mono/hyprcursors/size_NwSe/size_NwSe.svg

<?xml version="1.0" encoding="UTF-8" standalone="no"?>
<!-- Created with Inkscape (http://www.inkscape.org/) -->

<svg
   version="1.1"
   id="svg1"
   width="75"
   height="75"
   viewBox="0 0 75 75"
   xml:space="preserve"
   xmlns="http://www.w3.org/2000/svg"
   xmlns:svg="http://www.w3.org/2000/svg"><defs
     id="defs1" /><path
     id="Selection"
     fill="none"
     stroke="#000000"
     stroke-width="0.585871"
     d="M 32.584496,16.96681 27.539698,22.012036 52.963684,47.436022 58.008696,42.39101 60.50278,60.502072 42.391366,58.00834 47.43673,52.962975 22.012744,27.538989 16.96738,32.584354 14.493459,14.492751 Z"
     style="opacity:1;fill:#ffffff;fill-opacity:1;stroke:#000000;stroke-width:6.0036;stroke-dasharray:none;stroke-opacity:1;paint-order:stroke markers fill" /></svg>

<svg width="75" height="75" version="1.1" viewBox="0 0 75 75" xmlns="http://www.w3.org/2000/svg"><path d="m32.58 16.97-5.045 5.045 25.42 25.42 5.045-5.045 2.494 18.11-18.11-2.494 5.045-5.045-25.42-25.42-5.045 5.045-2.474-18.09z" fill="#fff" stroke="#000" stroke-width="6.004" style="paint-order:stroke markers fill"/></svg>
